X:1
T:Goldberg Variations: Variation V
T:BWV 988
T:J. S. Bach
%%score { 1 | 2 }
L:1/8
M:3/4
K:G
V:1 treble nm="Harp"
V:2 bass 
V:1
 z/ D/E/F/ G/F/G/A/ B/A/G/B/ | A/G/F/E/ D/E/F/G/ A/F/E/D/ | G/F/E/D/ ^C/D/E/F/ G/B/A/G/ | %3
 F/E/D/^C/ D/A,/D/E/ F/D/F/A/ | d/B/A/B/ G/B/A/B/ D/G/F/G/ | E/G/D/G/ C/G/B,/G/ A,/G/B,/G/ | %6
 C/G/B,/G/ C/F/E/F/ D/F/C/F/ | B,/G/F/E/ D/C/B,/A,/ G, z | b z G z b2 | a z F z a2 | %10
 g/f/e/^d/ e/g/=d/g/ ^c/g/B/g/ | ^c/g/e/g/ Ag fa/4g/4f/4g/4 | aE Ff ga | bF Eg ab | %14
 eG[K:bass] A,E ^CA, | D,[K:treble]D FA d2 | z/ D/E/F/ G/F/G/A/ B/A/G/B/ | %17
 A/G/F/E/ D/E/F/G/ A/F/E/D/ | G/F/E/D/ ^C/D/E/F/ G/B/A/G/ | F/E/D/^C/ D/A,/D/E/ F/D/F/A/ | %20
 d/B/A/B/ G/B/A/B/ D/G/F/G/ | E/G/D/G/ C/G/B,/G/ A,/G/B,/G/ | C/G/B,/G/ C/F/E/F/ D/F/C/F/ | %23
 B,/G/F/E/ D/C/B,/A,/ G, z | b z G z b2 | a z F z a2 | g/f/e/^d/ e/g/=d/g/ ^c/g/B/g/ | %27
 ^c/g/e/g/ Ag fa/4g/4f/4g/4 | aE Ff ga | bF Eg ab | eG[K:bass] A,E ^CA, | D,[K:treble]D FA d2 | %32
 f z D z g/4f/4e/4f/4g/4f/4e/4f/4 | gd/g/ ad/a/ bg | ec Ag f/4e/4^d/e- | %35
 ee/4^d/4e/4d/4 z[K:bass] A, A,/4G,/4A,/4G,/4F, | %36
 E, z[K:treble] e z[K:bass] E,/4D,/4C,/4D,/4E,/4D,/4C,/4D,/4 | %37
 C, z[K:treble] e z[K:bass] B,,/4A,,/4B,,/4A,,/4B,,/4A,,/4G,,/4A,,/4 | B,, z[K:treble] gf e^d | %39
 e z[K:bass] E,2- E,/D,/C,/B,,/ | C,/E,/D,/E,/ A,/E,/D,/E,/ C/A,/G,/A,/ | %41
 F/A,/G,/A,/[K:treble] G/D/C/D/ B/G/F/G/ | e/d/c/d/ f/d/c/d/ g/d/c/d/ | %43
 a/d/c/B/ c/B/A/G/ F/a/g/f/ | gB z[K:bass] =F, E,D, | C,/C/B,/C/[K:treble] D/C/E/C/ F/C/G/C/ | %46
 A/C/B,/A,/ B,d[K:bass] D,[K:treble]c | B/G/D/G/ B/G/d/B/ g2 | f z D z g/4f/4e/4f/4g/4f/4e/4f/4 | %49
 gd/g/ ad/a/ bg | ec Ag f/4e/4^d/e- | ee/4^d/4e/4d/4 z A, A,/4G,/4A,/4G,/4F, | %52
 E, z e z E,/4D,/4C,/4D,/4E,/4D,/4C,/4D,/4 | C, z e z B,,/4A,,/4B,,/4A,,/4B,,/4A,,/4G,,/4A,,/4 | %54
 B,, z gf e^d | e z E,2- E,/D,/C,/B,,/ | C,/E,/D,/E,/ A,/E,/D,/E,/ C/A,/G,/A,/ | %57
 F/A,/G,/A,/ G/D/C/D/ B/G/F/G/ | e/d/c/d/ f/d/c/d/ g/d/c/d/ | a/d/c/B/ c/B/A/G/ F/a/g/f/ | %60
 gB z =F, E,D, | C,/C/B,/C/ D/C/E/C/ F/C/G/C/ | A/C/B,/A,/ B,d D,c | %63
 B/G/D/G/ B/G/d/B/ !fermata!g2 |] %64
V:2
 G, z[K:treble] B z[K:bass] G,2 | F, z[K:treble] A z[K:bass] F,2 | E, z[K:treble] G z[K:bass] E,2 | %3
 D, z[K:treble] F z[K:bass] D,C, | B,, z[K:treble] d z[K:bass] B,,2 | %5
 C, z[K:treble] e z[K:bass] C,2 | D, z[K:treble] A z[K:bass] D,2 | G,, z[K:treble] B2- B/A/G/F/ | %8
 G/B/^c/d/ e/f/e/d/ c/B/A/G/ | F/A/B/^c/ d/e/d/c/ B/A/G/F/ | EF GB e/4d/4e/-e- | %11
 ed ^c/e/B/e/ A/e/G/e/ | F/e/d/^c/ d/A/D/d/ E/d/F/d/ | G/e/d/^c/ d/G/E/d/ F/d/G/d/ | %14
 A/d/^c/B/ c/e/A/c/ E/G/F/E/ | F/A/D/F/[K:bass] A,/D/F,/A,/ D,2 | G, z[K:treble] B z[K:bass] G,2 | %17
 F, z[K:treble] A z[K:bass] F,2 | E, z[K:treble] G z[K:bass] E,2 | %19
 D, z[K:treble] F z[K:bass] D,C, | B,, z[K:treble] d z[K:bass] B,,2 | %21
 C, z[K:treble] e z[K:bass] C,2 | D, z[K:treble] A z[K:bass] D,2 | G,, z[K:treble] B2- B/A/G/F/ | %24
 G/B/^c/d/ e/f/e/d/ c/B/A/G/ | F/A/B/^c/ d/e/d/c/ B/A/G/F/ | EF GB e/4d/4e/-e- | %27
 ed ^c/e/B/e/ A/e/G/e/ | F/e/d/^c/ d/A/D/d/ E/d/F/d/ | G/e/d/^c/ d/G/E/d/ F/d/G/d/ | %30
 A/d/^c/B/ c/e/A/c/ E/G/F/E/ | F/A/D/F/[K:bass] A,/D/F,/A,/ D,2 | %32
 z/[K:treble] d/c/B/ A/G/F/E/ D/c/B/A/ | B/G/F/E/ D/C/B,/A,/ G,/G/A/B/ | %34
 c/d/e/d/ c/B/A/G/ A/B/c/A/ | B/A/B/F/ B,/^C/^D/E/ F/G/A/F/ | G/B/G/E/ G/B/G/E/ G/B/G/E/ | %37
 A/c/A/E/ G/c/G/E/ F/c/F/E/ | G/B/G/E/ B,/B/A/B/ G/B/F/B/ | G/E/G/B/ e/B/G/B/ E z | %40
[K:bass] E z C, z E2 | D z B,, z D2 | CB, A,G, F,E, | F,G,/A,/ D,2- D,/C/B,/A,/ | %44
 B,/G,/F,/G,/ A,/G,/B,/G,/ C/G,/D/G,/ | EG, z B, A,G, | F,/[K:treble]D/E/F/ G/D/B,/G,/ A,/C/G/F/ | %47
 G[K:bass]G, D,B,, G,,2 | z/ d/c/B/ A/G/F/E/ D/c/B/A/ | B/G/F/E/ D/C/B,/A,/ G,/G/A/B/ | %50
 c/d/e/d/ c/B/A/G/ A/B/c/A/ | B/A/B/F/ B,/^C/^D/E/ F/G/A/F/ | G/B/G/E/ G/B/G/E/ G/B/G/E/ | %53
 A/c/A/E/ G/c/G/E/ F/c/F/E/ | G/B/G/E/ B,/B/A/B/ G/B/F/B/ | G/E/G/B/ e/B/G/B/ E z | E z C, z E2 | %57
 D z B,, z D2 | CB, A,G, F,E, | F,G,/A,/ D,2- D,/C/B,/A,/ | B,/G,/F,/G,/ A,/G,/B,/G,/ C/G,/D/G,/ | %61
 EG, z B, A,G, | F,/D/E/F/ G/D/B,/G,/ A,/C/G/F/ | GG, D,B,, !fermata!G,,2 |] %64

